style/rule-218-time-8.svg

<svg height="206pt" viewBox="0 0 180 206" width="180pt" xmlns="http://www.w3.org/2000/svg"><path d="m0 0h180v206h-180z" fill="#fff"/><g fill="#800080" fill-rule="evenodd"><path d="m79.953125 102.648438 19.09375-11.023438v22.046875zm0 0"/><path d="m137.234375 135.71875 19.09375-11.023438v22.046876zm0 0"/><path d="m137.234375 113.671875 19.09375-11.023437v22.046874zm0 0"/><path d="m137.234375 91.625 19.09375-11.023438v22.046876zm0 0"/><path d="m137.234375 69.578125 19.09375-11.023437v22.046874zm0 0"/><path d="m118.140625 58.554688 19.09375-11.023438v22.046875zm0 0"/><path d="m99.046875 47.53125 19.09375-11.023438v22.046876zm0 0"/><path d="m79.953125 36.507812 19.09375-11.023437v22.046875zm0 0"/><path d="m60.859375 47.53125 19.09375-11.023438v22.046876zm0 0"/><path d="m41.765625 58.554688 19.09375-11.023438v22.046875zm0 0"/><path d="m22.671875 69.578125 19.09375-11.023437v22.046874zm0 0"/><path d="m22.671875 91.625 19.09375-11.023438v22.046876zm0 0"/><path d="m22.671875 113.671875 19.09375-11.023437v22.046874zm0 0"/><path d="m22.671875 135.71875 19.09375-11.023438v22.046876zm0 0"/><path d="m41.765625 146.742188 19.09375-11.023438v22.046875zm0 0"/><path d="m60.859375 157.765625 19.09375-11.023437v22.046874zm0 0"/><path d="m79.953125 168.789062 19.09375-11.023437v22.046875zm0 0"/><path d="m99.046875 157.765625 19.09375-11.023437v22.046874zm0 0"/><path d="m118.140625 146.742188 19.09375-11.023438v22.046875zm0 0"/><path d="m156.328125 146.742188 19.09375-11.023438v22.046875zm0 0"/><path d="m156.328125 58.554688 19.09375-11.023438v22.046875zm0 0"/><path d="m79.953125 14.460938 19.09375-11.023438v22.046875zm0 0"/><path d="m3.578125 58.554688 19.09375-11.023438v22.046875zm0 0"/><path d="m3.578125 146.742188 19.09375-11.023438v22.046875zm0 0"/><path d="m79.953125 190.835938 19.09375-11.023438v22.046875zm0 0"/><path d="m137.234375 113.671875-19.09375-11.023437v22.046874zm0 0"/><path d="m137.234375 91.625-19.09375-11.023438v22.046876zm0 0"/><path d="m99.046875 69.578125-19.09375-11.023437v22.046874zm0 0"/><path d="m79.953125 80.601562-19.09375-11.023437v22.046875zm0 0"/><path d="m79.953125 124.695312-19.09375-11.023437v22.046875zm0 0"/><path d="m99.046875 135.71875-19.09375-11.023438v22.046876zm0 0"/><path d="m156.328125 124.695312-19.09375-11.023437v22.046875zm0 0"/><path d="m156.328125 80.601562-19.09375-11.023437v22.046875zm0 0"/><path d="m137.234375 69.578125-19.09375-11.023437v22.046874zm0 0"/><path d="m118.140625 58.554688-19.09375-11.023438v22.046875zm0 0"/><path d="m99.046875 47.53125-19.09375-11.023438v22.046876zm0 0"/><path d="m60.859375 69.578125-19.09375-11.023437v22.046874zm0 0"/><path d="m60.859375 91.625-19.09375-11.023438v22.046876zm0 0"/><path d="m60.859375 113.671875-19.09375-11.023437v22.046874zm0 0"/><path d="m60.859375 135.71875-19.09375-11.023438v22.046876zm0 0"/><path d="m99.046875 157.765625-19.09375-11.023437v22.046874zm0 0"/><path d="m118.140625 146.742188-19.09375-11.023438v22.046875zm0 0"/><path d="m137.234375 135.71875-19.09375-11.023438v22.046876zm0 0"/></g></svg>

<?xml version="1.0" encoding="UTF-8"?>
<svg xmlns="http://www.w3.org/2000/svg" xmlns:xlink="http://www.w3.org/1999/xlink" width="180pt" height="206pt" viewBox="0 0 180 206" version="1.1">
<g id="surface281">
<rect x="0" y="0" width="180" height="206" style="fill:rgb(100%,100%,100%);fill-opacity:1;stroke:none;"/>
<path style=" stroke:none;fill-rule:evenodd;fill:rgb(50.000763%,0%,50.000763%);fill-opacity:1;" d="M 79.953125 102.648438 L 99.046875 91.625 L 99.046875 113.671875 Z M 79.953125 102.648438 "/>
<path style=" stroke:none;fill-rule:evenodd;fill:rgb(50.000763%,0%,50.000763%);fill-opacity:1;" d="M 137.234375 135.71875 L 156.328125 124.695312 L 156.328125 146.742188 Z M 137.234375 135.71875 "/>
<path style=" stroke:none;fill-rule:evenodd;fill:rgb(50.000763%,0%,50.000763%);fill-opacity:1;" d="M 137.234375 113.671875 L 156.328125 102.648438 L 156.328125 124.695312 Z M 137.234375 113.671875 "/>
<path style=" stroke:none;fill-rule:evenodd;fill:rgb(50.000763%,0%,50.000763%);fill-opacity:1;" d="M 137.234375 91.625 L 156.328125 80.601562 L 156.328125 102.648438 Z M 137.234375 91.625 "/>
<path style=" stroke:none;fill-rule:evenodd;fill:rgb(50.000763%,0%,50.000763%);fill-opacity:1;" d="M 137.234375 69.578125 L 156.328125 58.554688 L 156.328125 80.601562 Z M 137.234375 69.578125 "/>
<path style=" stroke:none;fill-rule:evenodd;fill:rgb(50.000763%,0%,50.000763%);fill-opacity:1;" d="M 118.140625 58.554688 L 137.234375 47.53125 L 137.234375 69.578125 Z M 118.140625 58.554688 "/>
<path style=" stroke:none;fill-rule:evenodd;fill:rgb(50.000763%,0%,50.000763%);fill-opacity:1;" d="M 99.046875 47.53125 L 118.140625 36.507812 L 118.140625 58.554688 Z M 99.046875 47.53125 "/>
<path style=" stroke:none;fill-rule:evenodd;fill:rgb(50.000763%,0%,50.000763%);fill-opacity:1;" d="M 79.953125 36.507812 L 99.046875 25.484375 L 99.046875 47.53125 Z M 79.953125 36.507812 "/>
<path style=" stroke:none;fill-rule:evenodd;fill:rgb(50.000763%,0%,50.000763%);fill-opacity:1;" d="M 60.859375 47.53125 L 79.953125 36.507812 L 79.953125 58.554688 Z M 60.859375 47.53125 "/>
<path style=" stroke:none;fill-rule:evenodd;fill:rgb(50.000763%,0%,50.000763%);fill-opacity:1;" d="M 41.765625 58.554688 L 60.859375 47.53125 L 60.859375 69.578125 Z M 41.765625 58.554688 "/>
<path style=" stroke:none;fill-rule:evenodd;fill:rgb(50.000763%,0%,50.000763%);fill-opacity:1;" d="M 22.671875 69.578125 L 41.765625 58.554688 L 41.765625 80.601562 Z M 22.671875 69.578125 "/>
<path style=" stroke:none;fill-rule:evenodd;fill:rgb(50.000763%,0%,50.000763%);fill-opacity:1;" d="M 22.671875 91.625 L 41.765625 80.601562 L 41.765625 102.648438 Z M 22.671875 91.625 "/>
<path style=" stroke:none;fill-rule:evenodd;fill:rgb(50.000763%,0%,50.000763%);fill-opacity:1;" d="M 22.671875 113.671875 L 41.765625 102.648438 L 41.765625 124.695312 Z M 22.671875 113.671875 "/>
<path style=" stroke:none;fill-rule:evenodd;fill:rgb(50.000763%,0%,50.000763%);fill-opacity:1;" d="M 22.671875 135.71875 L 41.765625 124.695312 L 41.765625 146.742188 Z M 22.671875 135.71875 "/>
<path style=" stroke:none;fill-rule:evenodd;fill:rgb(50.000763%,0%,50.000763%);fill-opacity:1;" d="M 41.765625 146.742188 L 60.859375 135.71875 L 60.859375 157.765625 Z M 41.765625 146.742188 "/>
<path style=" stroke:none;fill-rule:evenodd;fill:rgb(50.000763%,0%,50.000763%);fill-opacity:1;" d="M 60.859375 157.765625 L 79.953125 146.742188 L 79.953125 168.789062 Z M 60.859375 157.765625 "/>
<path style=" stroke:none;fill-rule:evenodd;fill:rgb(50.000763%,0%,50.000763%);fill-opacity:1;" d="M 79.953125 168.789062 L 99.046875 157.765625 L 99.046875 179.8125 Z M 79.953125 168.789062 "/>
<path style=" stroke:none;fill-rule:evenodd;fill:rgb(50.000763%,0%,50.000763%);fill-opacity:1;" d="M 99.046875 157.765625 L 118.140625 146.742188 L 118.140625 168.789062 Z M 99.046875 157.765625 "/>
<path style=" stroke:none;fill-rule:evenodd;fill:rgb(50.000763%,0%,50.000763%);fill-opacity:1;" d="M 118.140625 146.742188 L 137.234375 135.71875 L 137.234375 157.765625 Z M 118.140625 146.742188 "/>
<path style=" stroke:none;fill-rule:evenodd;fill:rgb(50.000763%,0%,50.000763%);fill-opacity:1;" d="M 156.328125 146.742188 L 175.421875 135.71875 L 175.421875 157.765625 Z M 156.328125 146.742188 "/>
<path style=" stroke:none;fill-rule:evenodd;fill:rgb(50.000763%,0%,50.000763%);fill-opacity:1;" d="M 156.328125 58.554688 L 175.421875 47.53125 L 175.421875 69.578125 Z M 156.328125 58.554688 "/>
<path style=" stroke:none;fill-rule:evenodd;fill:rgb(50.000763%,0%,50.000763%);fill-opacity:1;" d="M 79.953125 14.460938 L 99.046875 3.4375 L 99.046875 25.484375 Z M 79.953125 14.460938 "/>
<path style=" stroke:none;fill-rule:evenodd;fill:rgb(50.000763%,0%,50.000763%);fill-opacity:1;" d="M 3.578125 58.554688 L 22.671875 47.53125 L 22.671875 69.578125 Z M 3.578125 58.554688 "/>
<path style=" stroke:none;fill-rule:evenodd;fill:rgb(50.000763%,0%,50.000763%);fill-opacity:1;" d="M 3.578125 146.742188 L 22.671875 135.71875 L 22.671875 157.765625 Z M 3.578125 146.742188 "/>
<path style=" stroke:none;fill-rule:evenodd;fill:rgb(50.000763%,0%,50.000763%);fill-opacity:1;" d="M 79.953125 190.835938 L 99.046875 179.8125 L 99.046875 201.859375 Z M 79.953125 190.835938 "/>
<path style=" stroke:none;fill-rule:evenodd;fill:rgb(50.000763%,0%,50.000763%);fill-opacity:1;" d="M 137.234375 113.671875 L 118.140625 102.648438 L 118.140625 124.695312 Z M 137.234375 113.671875 "/>
<path style=" stroke:none;fill-rule:evenodd;fill:rgb(50.000763%,0%,50.000763%);fill-opacity:1;" d="M 137.234375 91.625 L 118.140625 80.601562 L 118.140625 102.648438 Z M 137.234375 91.625 "/>
<path style=" stroke:none;fill-rule:evenodd;fill:rgb(50.000763%,0%,50.000763%);fill-opacity:1;" d="M 99.046875 69.578125 L 79.953125 58.554688 L 79.953125 80.601562 Z M 99.046875 69.578125 "/>
<path style=" stroke:none;fill-rule:evenodd;fill:rgb(50.000763%,0%,50.000763%);fill-opacity:1;" d="M 79.953125 80.601562 L 60.859375 69.578125 L 60.859375 91.625 Z M 79.953125 80.601562 "/>
<path style=" stroke:none;fill-rule:evenodd;fill:rgb(50.000763%,0%,50.000763%);fill-opacity:1;" d="M 79.953125 124.695312 L 60.859375 113.671875 L 60.859375 135.71875 Z M 79.953125 124.695312 "/>
<path style=" stroke:none;fill-rule:evenodd;fill:rgb(50.000763%,0%,50.000763%);fill-opacity:1;" d="M 99.046875 135.71875 L 79.953125 124.695312 L 79.953125 146.742188 Z M 99.046875 135.71875 "/>
<path style=" stroke:none;fill-rule:evenodd;fill:rgb(50.000763%,0%,50.000763%);fill-opacity:1;" d="M 156.328125 124.695312 L 137.234375 113.671875 L 137.234375 135.71875 Z M 156.328125 124.695312 "/>
<path style=" stroke:none;fill-rule:evenodd;fill:rgb(50.000763%,0%,50.000763%);fill-opacity:1;" d="M 156.328125 80.601562 L 137.234375 69.578125 L 137.234375 91.625 Z M 156.328125 80.601562 "/>
<path style=" stroke:none;fill-rule:evenodd;fill:rgb(50.000763%,0%,50.000763%);fill-opacity:1;" d="M 137.234375 69.578125 L 118.140625 58.554688 L 118.140625 80.601562 Z M 137.234375 69.578125 "/>
<path style=" stroke:none;fill-rule:evenodd;fill:rgb(50.000763%,0%,50.000763%);fill-opacity:1;" d="M 118.140625 58.554688 L 99.046875 47.53125 L 99.046875 69.578125 Z M 118.140625 58.554688 "/>
<path style=" stroke:none;fill-rule:evenodd;fill:rgb(50.000763%,0%,50.000763%);fill-opacity:1;" d="M 99.046875 47.53125 L 79.953125 36.507812 L 79.953125 58.554688 Z M 99.046875 47.53125 "/>
<path style=" stroke:none;fill-rule:evenodd;fill:rgb(50.000763%,0%,50.000763%);fill-opacity:1;" d="M 60.859375 69.578125 L 41.765625 58.554688 L 41.765625 80.601562 Z M 60.859375 69.578125 "/>
<path style=" stroke:none;fill-rule:evenodd;fill:rgb(50.000763%,0%,50.000763%);fill-opacity:1;" d="M 60.859375 91.625 L 41.765625 80.601562 L 41.765625 102.648438 Z M 60.859375 91.625 "/>
<path style=" stroke:none;fill-rule:evenodd;fill:rgb(50.000763%,0%,50.000763%);fill-opacity:1;" d="M 60.859375 113.671875 L 41.765625 102.648438 L 41.765625 124.695312 Z M 60.859375 113.671875 "/>
<path style=" stroke:none;fill-rule:evenodd;fill:rgb(50.000763%,0%,50.000763%);fill-opacity:1;" d="M 60.859375 135.71875 L 41.765625 124.695312 L 41.765625 146.742188 Z M 60.859375 135.71875 "/>
<path style=" stroke:none;fill-rule:evenodd;fill:rgb(50.000763%,0%,50.000763%);fill-opacity:1;" d="M 99.046875 157.765625 L 79.953125 146.742188 L 79.953125 168.789062 Z M 99.046875 157.765625 "/>
<path style=" stroke:none;fill-rule:evenodd;fill:rgb(50.000763%,0%,50.000763%);fill-opacity:1;" d="M 118.140625 146.742188 L 99.046875 135.71875 L 99.046875 157.765625 Z M 118.140625 146.742188 "/>
<path style=" stroke:none;fill-rule:evenodd;fill:rgb(50.000763%,0%,50.000763%);fill-opacity:1;" d="M 137.234375 135.71875 L 118.140625 124.695312 L 118.140625 146.742188 Z M 137.234375 135.71875 "/>
</g>
</svg>
